packages/core/src/svgs/tokens/branded/LQDR.svg

<svg width="24" height="24" viewBox="0 0 24 24" fill="none" xmlns="http://www.w3.org/2000/svg">
<path fill-rule="evenodd" clip-rule="evenodd" d="M13.6286 2C13.6286 2 13.6286 6.82859 16.0286 9.74863C18.4286 12.6744 18.8571 14.5772 18.8571 15.92C18.8571 17.2687 17.7543 22 12.48 22C7.20568 22 5.14282 17.1257 5.14282 13.9714C5.14282 10.8172 7.58855 4.69145 13.6286 2ZM12.5828 4.22287C12.5828 4.22287 13.0228 8.11431 15.1714 10.5029C17.3258 12.8857 17.7143 14.5944 17.7143 15.7429C17.7143 16.8972 17.5258 19.3315 13.7143 20.8857C13.7143 20.8857 14.5715 19.5887 14.5715 17.7715C14.5715 16.8515 14 15.7714 13.3428 14.5257C12.4628 12.8514 11.4285 10.8857 11.4285 8.64003C11.4285 5.58288 12.5828 4.22287 12.5828 4.22287ZM6.28568 13.8514C6.28568 9.19431 11.4285 4.77715 11.4285 4.77715C11.4285 4.77715 10.2857 6.74288 10.2857 9.22289C10.2857 11.2344 11.36 13.32 12.2571 15.0514C12.8857 16.2744 13.4286 17.32 13.4286 18.04C13.4286 19 13.3143 20.8915 11.3828 20.8915C9.45707 20.8915 6.28568 18.5029 6.28568 13.8514Z" fill="#4DD9F6"/>
</svg>

<svg xmlns="http://www.w3.org/2000/svg" width="24" height="24" fill="none" viewBox="0 0 24 24">
    <path fill="#4DD9F6" fill-rule="evenodd" d="M13.629 2s0 4.829 2.4 7.749c2.4 2.925 2.828 4.828 2.828 6.171 0 1.349-1.103 6.08-6.377 6.08s-7.337-4.874-7.337-8.029c0-3.154 2.446-9.28 8.486-11.971m-1.046 2.223s.44 3.891 2.588 6.28c2.155 2.383 2.543 4.091 2.543 5.24 0 1.154-.188 3.588-4 5.143 0 0 .857-1.297.857-3.114 0-.92-.571-2-1.228-3.246-.88-1.675-1.915-3.64-1.915-5.886 0-3.057 1.155-4.417 1.155-4.417M6.286 13.85c0-4.657 5.143-9.074 5.143-9.074s-1.143 1.966-1.143 4.446c0 2.011 1.074 4.097 1.971 5.828.629 1.223 1.172 2.269 1.172 2.989 0 .96-.115 2.852-2.046 2.852-1.926 0-5.097-2.39-5.097-7.04" clip-rule="evenodd"/>
</svg>
